img/svg/social/inst-icon-white.svg

<svg width="32" height="32" viewBox="0 0 32 32" fill="none" xmlns="http://www.w3.org/2000/svg">
<path d="M16.0034 31.8215C11.6984 31.8215 11.1909 31.7988 9.51092 31.7253C8.20081 31.6822 6.90767 31.4159 5.68717 30.9378C4.64273 30.5313 3.69423 29.9121 2.9019 29.1195C2.10957 28.3269 1.49073 27.3781 1.08467 26.3335C0.624954 25.1086 0.376999 23.8144 0.351418 22.5063C0.253418 20.8298 0.253418 20.2803 0.253418 16.0085C0.253418 11.6913 0.276168 11.1873 0.351418 9.51604C0.377559 8.20971 0.625505 6.91731 1.08467 5.69405C1.49026 4.64813 2.10952 3.69831 2.90291 2.90522C3.69629 2.11214 4.64635 1.49324 5.69242 1.08804C6.91504 0.626399 8.20777 0.377797 9.51442 0.353045C11.1857 0.258545 11.7352 0.258545 16.0034 0.258545C20.3434 0.258545 20.8422 0.281295 22.4959 0.353045C23.8049 0.377545 25.1034 0.626045 26.3284 1.08804C27.3742 1.49371 28.324 2.11278 29.1174 2.9058C29.9107 3.69882 30.5301 4.64841 30.9362 5.69405C31.4034 6.93654 31.6537 8.24904 31.6729 9.5738C31.7709 11.2503 31.7709 11.798 31.7709 16.068C31.7709 20.338 31.7464 20.898 31.6729 22.5553C31.6468 23.8646 31.3982 25.16 30.9379 26.386C30.5308 27.4314 29.9108 28.3806 29.1173 29.1735C28.3238 29.9665 27.374 30.5857 26.3284 30.992C25.1034 31.4505 23.8102 31.699 22.5029 31.7253C20.8317 31.8215 20.2839 31.8215 16.0034 31.8215ZM15.9439 3.02879C11.6634 3.02879 11.2189 3.04979 9.54767 3.12504C8.54955 3.1381 7.56107 3.32218 6.62517 3.66929C5.94255 3.93095 5.32233 4.33274 4.8045 4.84876C4.28666 5.36479 3.88271 5.98359 3.61867 6.66529C3.26867 7.61029 3.08492 8.60954 3.07442 9.61754C2.98167 11.3133 2.98167 11.7578 2.98167 16.0085C2.98167 20.2085 2.99742 20.7178 3.07442 22.403C3.09017 23.4005 3.27392 24.3893 3.61867 25.3255C4.15417 26.7028 5.24617 27.7913 6.62692 28.3198C7.56161 28.6691 8.5499 28.8532 9.54767 28.864C11.2417 28.962 11.6879 28.962 15.9439 28.962C20.2367 28.962 20.6812 28.941 22.3384 28.864C23.3366 28.852 24.3253 28.6679 25.2609 28.3198C25.9399 28.0561 26.5566 27.6541 27.0718 27.1392C27.587 26.6243 27.9894 26.0079 28.2534 25.329C28.6034 24.384 28.7872 23.383 28.7977 22.375H28.8169C28.8922 20.702 28.8922 20.2558 28.8922 15.9805C28.8922 11.7053 28.8729 11.2555 28.7977 9.58429C28.7818 8.5876 28.5978 7.60073 28.2534 6.66529C27.99 5.9855 27.5878 5.36803 27.0726 4.85221C26.5574 4.33639 25.9404 3.93353 25.2609 3.66929C24.3247 3.31929 23.3359 3.1373 22.3384 3.12504C20.6462 3.0288 20.2034 3.02879 15.9439 3.02879ZM16.0034 24.0918C14.4032 24.0928 12.8386 23.6193 11.5075 22.731C10.1764 21.8428 9.13861 20.5797 8.52543 19.1016C7.91224 17.6235 7.75117 15.9967 8.0626 14.4271C8.37403 12.8574 9.14396 11.4154 10.275 10.2834C11.4061 9.15132 12.8475 8.38013 14.4168 8.06735C15.9862 7.75456 17.6131 7.91422 19.0917 8.52613C20.5704 9.13803 21.8343 10.1747 22.7237 11.505C23.6132 12.8353 24.0881 14.3995 24.0884 15.9998C24.0856 18.1439 23.2332 20.1994 21.7177 21.7162C20.2023 23.2329 18.1475 24.0872 16.0034 24.0918ZM16.0034 10.7463C14.9651 10.7463 13.95 11.0542 13.0867 11.6311C12.2233 12.208 11.5504 13.0279 11.153 13.9872C10.7557 14.9465 10.6517 16.0021 10.8543 17.0205C11.0569 18.0389 11.5569 18.9744 12.2911 19.7086C13.0253 20.4428 13.9608 20.9428 14.9792 21.1454C15.9976 21.348 17.0532 21.244 18.0125 20.8467C18.9718 20.4493 19.7918 19.7764 20.3686 18.913C20.9455 18.0497 21.2534 17.0346 21.2534 15.9963C21.2502 14.6049 20.696 13.2714 19.7122 12.2876C18.7283 11.3037 17.3948 10.7495 16.0034 10.7463ZM24.4034 9.49854C24.1557 9.49763 23.9105 9.44792 23.682 9.35226C23.4535 9.25661 23.246 9.11688 23.0715 8.94105C22.719 8.58595 22.5221 8.10538 22.5239 7.60504C22.5258 7.10471 22.7263 6.62561 23.0814 6.27314C23.4365 5.92066 23.9171 5.72369 24.4174 5.72554C24.9177 5.7274 25.3968 5.92794 25.7493 6.28304C26.1018 6.63814 26.2988 7.11871 26.2969 7.61904C26.2951 8.11938 26.0945 8.59848 25.7394 8.95095C25.3843 9.30343 24.9037 9.5004 24.4034 9.49854Z" fill="white"/>
</svg>

<svg xmlns="http://www.w3.org/2000/svg" fill="none" viewBox="0 0 32 32"><path fill="#fff" d="M16.003 31.822c-4.305 0-4.812-.023-6.492-.097a11.522 11.522 0 0 1-3.824-.787 8.084 8.084 0 0 1-4.602-4.604 11.534 11.534 0 0 1-.734-3.828C.253 20.83.253 20.28.253 16.01c0-4.318.023-4.822.098-6.493.027-1.306.275-2.599.734-3.822a8.067 8.067 0 0 1 4.607-4.606A11.433 11.433 0 0 1 9.514.353c1.672-.094 2.221-.094 6.49-.094 4.34 0 4.838.022 6.492.094 1.309.025 2.607.273 3.832.735a8.077 8.077 0 0 1 4.608 4.606c.467 1.243.718 2.555.737 3.88.098 1.676.098 2.224.098 6.494s-.025 4.83-.098 6.487a11.554 11.554 0 0 1-.735 3.831 8.091 8.091 0 0 1-4.61 4.606 11.577 11.577 0 0 1-3.825.733c-1.671.096-2.22.096-6.5.096zm-.06-28.793c-4.28 0-4.724.02-6.395.096a8.733 8.733 0 0 0-2.923.544A5.233 5.233 0 0 0 3.62 6.665a8.765 8.765 0 0 0-.545 2.953c-.092 1.695-.092 2.14-.092 6.39 0 4.2.015 4.71.092 6.395.016.998.2 1.986.545 2.923a5.238 5.238 0 0 0 3.008 2.994 8.61 8.61 0 0 0 2.92.544c1.695.098 2.14.098 6.397.098 4.293 0 4.737-.021 6.394-.098a8.68 8.68 0 0 0 2.923-.544 5.25 5.25 0 0 0 2.992-2.991c.35-.945.534-1.946.545-2.954h.019c.075-1.673.075-2.12.075-6.395 0-4.275-.02-4.725-.094-6.396a8.858 8.858 0 0 0-.545-2.919 5.25 5.25 0 0 0-2.992-2.996 8.646 8.646 0 0 0-2.923-.544c-1.692-.096-2.135-.096-6.394-.096zm.06 21.063A8.09 8.09 0 1 1 24.088 16a8.102 8.102 0 0 1-8.085 8.092zm0-13.346a5.25 5.25 0 1 0 5.25 5.25 5.262 5.262 0 0 0-5.25-5.25zm8.4-1.247a1.886 1.886 0 1 1 .014-3.773 1.886 1.886 0 0 1-.014 3.773z"/></svg>
